icon-themes/sifr_svg/cmd/sc_symbolshapes.right-brace.svg

<svg viewBox="0 0 16 16" xmlns="http://www.w3.org/2000/svg"><path d="m5 1v2h2a1 1 0 0 1 1 1v2a3 3 0 0 0 1.3457031 2.5 3 3 0 0 0 -1.3457031 2.5v2a1 1 0 0 1 -1 1h-2v2h2a3 3 0 0 0 3-3v-2a1 1 0 0 1 1-1h1v-3h-1a1 1 0 0 1 -1-1v-2a3 3 0 0 0 -3-3z" fill="#555753"/></svg>

<svg xmlns="http://www.w3.org/2000/svg" viewBox="0 0 16 16">
  <path
     style="fill:#555753"
     d="M 5 1 L 5 3 L 7 3 A 1 1 0 0 1 8 4 L 8 6 A 3 3 0 0 0 9.3457031 8.5 A 3 3 0 0 0 8 11 L 8 13 A 1 1 0 0 1 7 14 L 5 14 L 5 16 L 7 16 A 3 3 0 0 0 10 13 L 10 11 A 1 1 0 0 1 11 10 L 12 10 L 12 7 L 11 7 A 1 1 0 0 1 10 6 L 10 4 A 3 3 0 0 0 7 1 L 5 1 z "
     />
</svg>
